X:1
T: Mel's Fiddle
C:for Melvin Wilson                Muriel A Johnstone
R:Reel
%Q: 232
K:D
M:4/4
L:1/8
A,2|D1/2D1/2D FD AD dD|cd ec dA FD|E1/2E1/2E GE BE ef|ge cA GE CA,|
D1/2D1/2D FD AD dD|cd ec dA FD|GE BG eB gf|ed cB Ag fe|
dD D1/2D1/2D FD Ad|cA Bc dA FD|eE E1/2E1/2E GE Be|^de fe ge cA|
dD D1/2D1/2D FD Ad|cA Bc dA de|fd gf ed cB|1AG FE DC B,A,:|2AG FE D2||
